!!!COM: Anon.
!!!OTL: Waga-Koiwa
!!!OTC: Japanese Popular Music: A Collection of The Popular Music of Japan Rendered in to the Staff notation.
!!!CNT: Nippon, Japanese
!!!TXO: Nippon, Japan
!!!OCY: Nippon, Japan
!!!ODT: <1892///
!!!PSR: S. Miki & Co.
!!!PSP: Osaka, Nippon
!!!PDT: 1892///
!!!PPE: Y Nagai & K. Kobatake
!!!PED: Revised Second Edition
!!!PPG: page 45
!! Allegro moderato
**kern	**silbe
*ICstr	*Lnippon
*ICvox	*
*Ikoto	*
*Ivox	*
*clefG2	*
*k[]	*
*M4/4	*
=1-	=1-
2ee	.
(4cc	.
4b)	.
=2	=2
4a	.
4f	.
4a	.
8.e	.
16cc	.
=3	=3
(4cc	.
4cc)	.
8.b	.
16a	.
8f	.
8a	.
=4	=4
4e	.
8.e	.
16c	.
4B	.
8.b	.
16dd	.
=5	=5
4ee	.
4e	.
2e 2ee	.
=6	=6
4r	.
4ee	.
2ee	.
=7	=7
4e	.
4ee	.
8ee	.
8dd	.
8b	.
8dd	.
=8	=8
(4ee	.
4.ff)	.
(8ff	.
4ee)	.
=9	=9
8dd	.
8ee	.
8dd	.
8b	.
4dd	.
4ee	.
=10	=10
2ff	.
(4ee	.
8cc)	.
8cc	.
=11	=11
8ee	.
8ff	.
8ee	.
8cc	.
8b	.
8cc	.
8a	.
8f	.
=12	=12
4a	.
4b	.
4e	.
8cc	.
8cc	.
=13	=13
4cc	.
4b	.
4c	.
8ee	.
8ee	.
=14	=14
8c	.
8B	.
8a	.
8b	.
4cc	.
8b	.
8cc	.
=15	=15
4a	.
4f	.
4e	.
8.a	.
16f	.
=16	=16
8f	.
8f	.
8e	.
16b	.
16b	.
8b	.
8b	.
8e	.
8c	.
=17	=17
8e	.
8c	.
4B	.
8e	.
8d	.
[4d	.
=18	=18
4d]	.
4e	.
4f	.
4d	.
=19	=19
4B?	.
4r	.
4e	.
8c	.
8c	.
=20	=20
8r	.
8a	.
8b	.
8b	.
8r	.
8b	.
8r	.
8cc	.
=21	=21
4b	.
4e	.
4B 4b	.
4r	.
==	==
*-	*-
!!!ENC: David Huron
!!!RDT: 2000/1/30
!!!EEV: Release 1.0
!!!ELF: 13/28
!!!YER: 2000/2/1
!!!YEM: Copyright David Huron, 2000
!!!YEN: United States of America
